X:1
T:Santa Bring My Baby Back (to Me)
T:Santa, Bring My Baby Back (To Me)
C:Aaron Schroeder, Claude DeMetrius
Z:All Rights Reserved
L:1/4
M:4/4
K:C
V:1 treble nm="Voice" snm="Vo."
%%MIDI program 0
V:1
 z2 z G |"Cmaj7" G G"Cmaj7/B" G A |"Am7" G E"Am7/G" z G |"Fmaj7" A A"Dm7" c A |"Cmaj7" G3"C7" z | %5
w: Don't|need a lot of|pres- ents to|make my Christ- mas|bright.|
"Fmaj7" A A"F6" A F |"Fmaj7" A A"F#dim7" c2 |"C/G" G A G E |"Gdim7" G"^N.C." G A G |"G7" z B2 d | %10
w: I just need my|ba- by's arms|wound a- round me|tight. Oh, San- ta,|hear my|
 (B G3) |"Dm7" c c"Em7#5" c c |"F6" d d"G7" d d |"C6" (e c3) |"Dm7" z2"G7" z G | %15
w: plea _|San- ta, bring my|ba- by back to|me. _|The|
"Cmaj7" G G"Cmaj7/B" G A |"Am7" G E"Am7/G" z G |"Fmaj7" A A"Dm7" c A |"Cmaj7" G3"C7" G | %19
w: Christ- mas tree is|read- y, the|can- dles all a-|glow, but|
"Fmaj7" A A"F6" A F |"Fmaj7" A A"F#dim7" c c |"C/G" G A G E |"Gdim7" G"^N.C." G A G |"G7" z B2 d | %24
w: with my ba- by|far a- way what|good is mis- tle|toe? Oh, San- ta|hear my|
 (B G3) |"Dm7" c c"Em7#5" c c |"F6" d d"G7" d d |"C6" (e c3) |"Gm7" z2"C7" z c || %29
w: plea. _|San- ta bring my|ba- by back to|me. _|Please|
"Fmaj7" c A"Fmaj7/E" F A |"Dm7" c c"D#dim7" z c |"C6/E" c G"G7" E G |"C6" c3 c |"D7" d A ^F A | %34
w: make those rein- deer|hur- ry; the|time is draw- in|near. It|sure won't seem like|
 d d z c |"Am7" B d"D7" B A |"G7sus4" G3"G7" G ||"Cmaj7" G G"Cmaj7/B" G A |"Am7" G E"Am7/G" z G | %39
w: Christ- mas un-|less my ba- by's|here. Don't|fill my sock with|can- dy, no|
"Fmaj7" A A"Dm7" c A |"Cmaj7" G3"C7" G |"Fmaj7" A A"F6" A F |"Fmaj7" A"F#dim7" c2 A | %43
w: bright and shin- y|toy. You|wan- na make me|hap- py and|
"C/G" G A G E |"Gdim7" G"^N.C." G A G |"G7" z B2 d | d G3 |"Dm7" c c"Em7#5" c c |"F6" d d"G7" d d | %49
w: fill my heart with|joy? Then, San- ta,|hear my|plea. _|San- ta, bring my|ba- by back to|
"C6" e c3- | c2 z2 |] %51
w: me. _|_|

